X: 31067
T: Paddy Cronin's
R: polka
M: 2/4
K: Adorian
eA BA|af g>f|eA BA|dB GB|
eA BA|af g>f|e2 e/f/e/d/|BA A2:|
|:eA BA|eA BA|EA BA|dB G2|
[1 eA BA|eA BA|e2 e/f/e/d/|BA A2:|
[2 ec dB|cA BG|e2 e/f/e/d/|BA A2||

